svgs/regular/hurricane.svg

<svg xmlns="http://www.w3.org/2000/svg" viewBox="0 0 448 512"><!-- Font Awesome Pro 6.0.0-alpha2 by @fontawesome - https://fontawesome.com License - https://fontawesome.com/license (Commercial License) --><path d="M224 96C210.75 96 200 106.75 200 120S210.75 144 224 144C312.219 144 384 215.781 384 304S312.219 464 224 464C210.75 464 200 474.75 200 488S210.75 512 224 512C338.688 512 432 418.688 432 304S338.688 96 224 96ZM264 392C264 378.75 253.25 368 240 368C151.781 368 80 296.219 80 208S151.781 48 240 48C253.25 48 264 37.25 264 24S253.25 0 240 0C125.312 0 32 93.312 32 208S125.312 416 240 416C253.25 416 264 405.25 264 392ZM256 256C256 238.326 241.674 224 224 224S192 238.326 192 256C192 273.672 206.326 288 224 288S256 273.672 256 256Z"/></svg>

<svg xmlns="http://www.w3.org/2000/svg" viewBox="0 0 448 512"><!--! Font Awesome Pro 6.0.0-alpha3 by @fontawesome - https://fontawesome.com License - https://fontawesome.com/license (Commercial License) --><path d="M224 96C210.8 96 200 106.8 200 120S210.8 144 224 144c88.22 0 160 71.79 160 160S312.2 464 224 464c-13.25 0-24 10.75-24 24S210.8 512 224 512c114.7 0 208-93.31 208-208S338.7 96 224 96zM264 392c0-13.25-10.75-24-24-24c-88.22 0-160-71.78-160-160s71.78-160 160-160c13.25 0 24-10.75 24-24S253.3 0 240 0C125.3 0 32 93.31 32 208s93.31 208 208 208C253.3 416 264 405.3 264 392zM256 255.1c0-17.67-14.33-32-32-32S192 238.3 192 255.1c0 17.67 14.33 32 32 32S256 273.7 256 255.1z"/></svg>
